navigator-task/img/icons/email.svg

<svg width="64" height="46" viewBox="0 0 64 46" fill="none" xmlns="http://www.w3.org/2000/svg">
<path d="M51.2498 35.1383C50.9988 35.1383 50.7477 35.0464 50.5518 34.8607L38.8073 23.8429C38.3971 23.4591 38.3767 22.8121 38.7624 22.4019C39.1482 21.9875 39.7911 21.9691 40.2055 22.3569L51.9499 33.3748C52.3602 33.7585 52.3806 34.4055 51.9948 34.8158C51.7928 35.0301 51.5234 35.1383 51.2498 35.1383Z" fill="white"/>
<path d="M12.0466 35.1369C11.7751 35.1369 11.5036 35.0287 11.3016 34.8144C10.9158 34.4042 10.9362 33.7571 11.3465 33.3734L23.095 22.3556C23.5073 21.9719 24.1543 21.9882 24.538 22.4005C24.9238 22.8108 24.9034 23.4578 24.4931 23.8415L12.7446 34.8593C12.5487 35.0451 12.2976 35.1369 12.0466 35.1369Z" fill="white"/>
<path d="M58.1957 45.3823H5.10274C2.29011 45.3823 0 43.0943 0 40.2796V5.48506C0 2.67039 2.29011 0.382324 5.10274 0.382324H58.1957C61.0083 0.382324 63.2984 2.67039 63.2984 5.48506V40.2796C63.2984 43.0943 61.0083 45.3823 58.1957 45.3823ZM5.10274 2.42342C3.41475 2.42342 2.04109 3.79707 2.04109 5.48506V40.2796C2.04109 41.9676 3.41475 43.3412 5.10274 43.3412H58.1957C59.8837 43.3412 61.2573 41.9676 61.2573 40.2796V5.48506C61.2573 3.79707 59.8837 2.42342 58.1957 2.42342H5.10274Z" fill="white"/>
<path d="M31.6492 28.0107C30.2918 28.0107 28.9345 27.5596 27.9017 26.6595L1.69407 3.79722C1.26952 3.42778 1.22462 2.7828 1.59406 2.35621C1.96758 1.93166 2.61052 1.89288 3.03507 2.25823L29.2427 25.1185C30.547 26.2554 32.7514 26.2554 34.0536 25.1185L60.2286 2.29497C60.6511 1.92554 61.294 1.96636 61.6696 2.39295C62.039 2.81954 61.9962 3.46248 61.5716 3.83396L35.3966 26.6575C34.3618 27.5596 33.0065 28.0107 31.6492 28.0107Z" fill="white"/>
</svg>

<svg width="64" height="46" fill="none" xmlns="http://www.w3.org/2000/svg"><path d="M51.25 35.138a1.01 1.01 0 01-.698-.277L38.807 23.843a1.02 1.02 0 01-.045-1.441 1.016 1.016 0 011.444-.045L51.95 33.375a1.02 1.02 0 01-.7 1.763zm-39.203-.001a1.021 1.021 0 01-.7-1.764l11.748-11.017a1.02 1.02 0 111.398 1.486L12.745 34.858a1.01 1.01 0 01-.698.278z" fill="#fff"/><path d="M58.196 45.382H5.103A5.108 5.108 0 010 40.28V5.485A5.109 5.109 0 015.103.382h53.093a5.109 5.109 0 015.102 5.103V40.28a5.108 5.108 0 01-5.102 5.102zM5.103 2.423A3.065 3.065 0 002.04 5.485V40.28a3.065 3.065 0 003.062 3.061h53.093a3.065 3.065 0 003.061-3.061V5.485a3.065 3.065 0 00-3.061-3.062H5.103z" fill="#fff"/><path d="M31.65 28.01c-1.358 0-2.715-.45-3.748-1.35L1.694 3.797a1.023 1.023 0 01-.1-1.44 1.027 1.027 0 011.441-.099l26.208 22.86c1.304 1.137 3.508 1.137 4.81 0L60.23 2.296a1.022 1.022 0 011.343 1.539L35.397 26.657c-1.035.903-2.39 1.354-3.748 1.354z" fill="#fff"/></svg>
